!!!COM:	la Rue, Pierre de
!!!CDT:	~1452///-1518/11/20
!!!OPR:	Missa Pascale
!!!ONM:	3
!!!OTL:	Credo
!!!AGN:	Mass; Credo
!!!SCT:	Rue1023c
!!!SCA:	Rue1023c
!!!voices-OPR:	5
!!!voices:	5
**kern	**kern	**kern	**kern	**kern
*Ivox	*Ivox	*Ivox	*Ivox	*Ivox
*I"Bassus	*I"Tenor2	*I"Tenor	*I"Contra	*I"Discantus
*I'B	*I'T2	*I'T	*I'C	*I'D
*staff5	*staff4	*staff3	*staff2	*staff1
*>[A,B]	*>[A,B]	*>[A,B]	*>[A,B]	*>[A,B]
*>A	*>A	*>A	*>A	*>A
*clefF4	*clefGv2	*clefGv2	*clefGv2	*clefG2
*k[]	*k[]	*k[]	*k[]	*k[]
*M2/1	*M2/1	*M2/1	*M2/1	*M2/1
*met(C2)	*met(C2)	*met(C2)	*met(C2)	*met(C2)
!!section: Patrem omnipotentem
!!!OMD: Patrem omnipotentem
=1-	=1-	=1-	=1-	=1-
0r	0r	0r	0r	0e
=2.	=2.	=2.	=2.	=2.
0r	0r	0r	0e	0g
=3	=3	=3	=3	=3
0r	0r	0D	[0f	0a
=4.	=4.	=4.	=4.	=4.
0r	0r	0D	0f]	0a
=5	=5	=5	=5	=5
0r	0r	1E	1e	1g
.	.	[1F	[1c	[1a
=6.	=6.	=6.	=6.	=6.
0r	0r	2F/]	1c]	2a/]
.	.	2E/	.	2g/
.	.	1D	1d	1f
=7	=7	=7	=7	=7
0r	0r	1C	1e	1g
.	.	1D	[1f	2d/
.	.	.	.	[2a/
=8.	=8.	=8.	=8.	=8.
0r	0A	0F	2f\]	2a/]
.	.	.	2e\	2g/
.	.	.	[1d	2f/
.	.	.	.	[2a/
=9	=9	=9	=9	=9
0AA	1A	0E	1d]	2a/]
.	.	.	.	4g/
.	.	.	.	4f/
.	1A	.	1c	1e
=10.	=10.	=10.	=10.	=10.
1D	1A	0D	0d	0f
[1D	2B\	.	.	.
.	[2A/	.	.	.
=11	=11	=11	=11	=11
1D]	2A/]	0r	0r	0r
.	4G/	.	.	.
.	4F/	.	.	.
1C	1E	.	.	.
=12.	=12.	=12.	=12.	=12.
1D	1D	0r	0r	0r
2C/	1r	.	.	.
2BB/	.	.	.	.
=13	=13	=13	=13	=13
1AA	2E/	0r	0r	0r
.	2F/	.	.	.
1GG	2G/	.	.	.
.	2G/	.	.	.
=14.	=14.	=14.	=14.	=14.
2BB/	1G	0r	0r	0r
2C/	.	.	.	.
2D\	2.F/	.	.	.
2D\	.	.	.	.
.	4G/	.	.	.
=15	=15	=15	=15	=15
0D	4A/	0r	0r	0r
.	4B-i\	.	.	.
.	1A	.	.	.
.	4G/	.	.	.
.	4F/	.	.	.
=16.	=16.	=16.	=16.	=16.
2.C/	2E/	0r	0r	0r
.	2.c\	.	.	.
4D\	.	.	.	.
4E\	.	.	.	.
4F\	4B\	.	.	.
[2E\	4G/	.	.	.
.	4A/	.	.	.
=17	=17	=17	=17	=17
4E\]	2B\	0r	0r	0r
4D\	.	.	.	.
2C/	1A	.	.	.
1BB	.	.	.	.
.	2G/	.	.	.
=18.	=18.	=18.	=18.	=18.
0AA	2A/	0r	0e	0r
.	4G/	.	.	.
.	4F/	.	.	.
.	1E	.	.	.
=19	=19	=19	=19	=19
0r	[0D	[0F	0f	1.a
.	.	.	.	2a/
=20.	=20.	=20.	=20.	=20.
0r	0D]	0F]	1f	1a
.	.	.	1d	1a
=21	=21	=21	=21	=21
0r	0r	0E	0e	2.g/
.	.	.	.	4a/
.	.	.	.	2b\
.	.	.	.	[2cc\
=22.	=22.	=22.	=22.	=22.
1r	0r	0F	1c	4cc\]
.	.	.	.	4b\
.	.	.	.	4a/
.	.	.	.	4g/
1D	.	.	1d	1a
=23	=23	=23	=23	=23
1GG	1D	[0G	0d	1b
1GG	2D/	.	.	2r
.	[2D/	.	.	[2b\
=24.	=24.	=24.	=24.	=24.
1GG	2D/]	0G]	2.B\	2b\]
.	2E/	.	.	2b\
.	.	.	4c\	.
[1GG	2D/	.	2d\	2b\
.	[2G/	.	2d\	2b\
=25	=25	=25	=25	=25
2GG/]	2G/]	0G	1e	2g/
2GG/	4F/	.	.	2.b\
.	4E/	.	.	.
[1GG	2G/	.	2.d\	.
.	.	.	.	4cc\
.	4F/	.	.	[2dd\
.	4E/	.	4c\	.
=26.	=26.	=26.	=26.	=26.
1GG]	1D	0G	0B	4dd\]
.	.	.	.	4cc\
.	.	.	.	4b\
.	.	.	.	4a/
1G	1E	.	.	2g/
.	.	.	.	4a/
.	.	.	.	4g/
=27	=27	=27	=27	=27
1D	2F/	1F	1d	1a
.	2A/	.	.	.
2G\	2B\	2G/	2B\	2r
[2F\	2A/	[2A/	2c\	[2a/
=28.	=28.	=28.	=28.	=28.
4F\]	2F/	4A/]	2d\	2a/]
4E\	.	4G/	.	.
2C/	2A/	2E/	1e	2cc\
1D	1d	1F	.	2b\
.	.	.	2d\	2a/
=29	=29	=29	=29	=29
1AA	0c	0E	[0e	1.cc
2AA/	.	.	.	.
[2C/	.	.	.	4b\
.	.	.	.	4a/
=30.	=30.	=30.	=30.	=30.
4C/]	0r	1E	0e]	2g/
4BB/	.	.	.	.
2AA/	.	.	.	2a/
1GG	.	1E	.	1b
=31	=31	=31	=31	=31
0FF	1c	0F	0r	1a
.	2c\	.	.	1cc
.	[2c\	.	.	.
=32.	=32.	=32.	=32.	=32.
1AA	2c\]	0E	1r	2cc\
.	1A	.	.	1cc
2AA/	.	.	1e	.
2GG/	2B\	.	.	2b\
=33	=33	=33	=33	=33
1FF	0c	1.A	1f	2a/
.	.	.	.	1cc
[1C	.	.	2e\	.
.	.	2G/	[2e\	4b\
.	.	.	.	4a/
=34.	=34.	=34.	=34.	=34.
1C]	1c	1E	2e\]	2g/
.	.	.	2c\	2a/
1GG	1B	2.G/	2d\	1b
.	.	.	2e\	.
.	.	4F/	.	.
=35	=35	=35	=35	=35
2AA/	2c\	2E/	2c\	1a
1D	2.F/	2D/	2d\	.
.	.	2.A/	2f\	1a
.	4D/	.	.	.
2C/	2E/	.	[2e\	.
.	.	4G/	.	.
=36.	=36.	=36.	=36.	=36.
1D	2F/	1F	2e\]	0a
.	1A	.	1d	.
1AA	.	1E	.	.
.	2A/	.	2c#i\	.
=37	=37	=37	=37	=37
1D	1F	0r	[0d	1r
2r	1D	.	.	1a
2D\	.	.	.	.
=38.	=38.	=38.	=38.	=38.
2D\	[0A	0r	0d]	2a/
1F	.	.	.	1a
4E\	.	.	.	2a/
4D\	.	.	.	.
=39	=39	=39	=39	=39
2C/	0A_	0r	0r	2.a/
2.D\	.	.	.	.
.	.	.	.	4g/
.	.	.	.	4f/
4C/	.	.	.	4e/
2D\	.	.	.	[2f/
=40.	=40.	=40.	=40.	=40.
2AA/	0A_	0r	1r	2f/]
1D	.	.	.	4e/
.	.	.	.	4d/
.	.	.	1e	1e
2C#i/	.	.	.	.
=41	=41	=41	=41	=41
[0D	0A]	0r	1f	1d
.	.	.	1f	2r
.	.	.	.	2d/
=42.	=42.	=42.	=42.	=42.
0D_	0r	0r	2f\	2d/
.	.	.	1f	2d/
.	.	.	.	2.a/
.	.	.	2f\	.
.	.	.	.	8g/L
.	.	.	.	8a/J
=43	=43	=43	=43	=43
0D_	0r	0r	2.f\	2b-i\
.	.	.	.	2a/
.	.	.	4e\	.
.	.	.	4d\	4f/
.	.	.	4c\	4g/
.	.	.	[2d\	4a/
.	.	.	.	4b-i\
=44.	=44.	=44.	=44.	=44.
0D]	0r	0r	2d\]	2a/
.	.	.	4c\	1g
.	.	.	4B\	.
.	.	.	2A/	.
.	.	.	2A/	2f#i/
=45	=45	=45	=45	=45
0r	0r	0r	2G/	1g
.	.	.	2c\	.
.	.	.	2c\	2r
.	.	.	2B\	2g/
=46.	=46.	=46.	=46.	=46.
0r	0r	0r	1c	2a/
.	.	.	.	1cc
.	.	.	1d	.
.	.	.	.	2b\
=47	=47	=47	=47	=47
0r	0r	0r	2r	1a
.	.	.	2c\	.
.	.	.	2d\	2r
.	.	.	[2f\	2a/
=48.	=48.	=48.	=48.	=48.
0r	0r	0r	2f\]	2b\
.	.	.	2d\	1dd
.	.	.	1e	.
.	.	.	.	2cc\
=49	=49	=49	=49	=49
0r	0r	0r	1d	2b\
.	.	.	.	1a
.	.	.	2r	.
.	.	.	2d\	4g/
.	.	.	.	4f/
=50.	=50.	=50.	=50.	=50.
0r	0r	0r	2e\	2g/
.	.	.	2.g\	1e
.	.	.	4f\	.
.	.	.	4e\	[2cc\
.	.	.	4d\	.
=51	=51	=51	=51	=51
0r	0r	0r	4e\	4cc\]
.	.	.	4d\	4b\
.	.	.	2.f\	4a/
.	.	.	.	4g/
.	.	.	.	4a/
.	.	.	4e\	4g/
.	.	.	4d\	2b\
.	.	.	4c\	.
=52.	=52.	=52.	=52.	=52.
0r	0r	0r	4d\	4b\
.	.	.	4c\	4a/
.	.	.	1e	4g/
.	.	.	.	4f/
.	.	.	.	4g/
.	.	.	.	4e/
.	.	.	2c\	[2a/
=53	=53	=53	=53	=53
0r	0r	0r	2.c\	2a/]
.	.	.	.	2g/
.	.	.	4B\	.
.	.	.	4c\	4g/
.	.	.	4d\	4f/
.	.	.	4e\	4g/
.	.	.	4f\	4a/
=54.	=54.	=54.	=54.	=54.
0r	0r	0r	2e\	4g/
.	.	.	.	4f/
.	.	.	1d	4e/
.	.	.	.	4d/
.	.	.	.	1e
.	.	.	2c#i\	.
=55	=55	=55	=55	=55
1.D	1r	[0F	[0d	0d
.	1A	.	.	.
2D\	.	.	.	.
=56.	=56.	=56.	=56.	=56.
1D	2A/	0F]	0d]	0r
.	1A	.	.	.
1D	.	.	.	.
.	[2B-i\	.	.	.
=57	=57	=57	=57	=57
0D	2B-\]	0F	0r	0r
.	1A	.	.	.
.	4G/	.	.	.
.	4F/	.	.	.
=58.	=58.	=58.	=58.	=58.
2C/	1E	0G	0r	0r
2C/	.	.	.	.
2BB/	2r	.	.	.
[2C/	[2E/	.	.	.
=59	=59	=59	=59	=59
2C/]	2E/]	0G	0r	0r
4BB/	2E/	.	.	.
4AA/	.	.	.	.
2BB/	2D/	.	.	.
2C/	[2E/	.	.	.
=60.	=60.	=60.	=60.	=60.
2.GG/	2E/]	0G	0r	0r
.	4D/	.	.	.
4AA/	4C/	.	.	.
2BB/	2D/	.	.	.
2C/	2E/	.	.	.
=61	=61	=61	=61	=61
1D	4F/	0F	0r	0r
.	4G/	.	.	.
.	4A/	.	.	.
.	4B\	.	.	.
2AA/	2c\	.	.	.
2D\	[2B\	.	.	.
=62.	=62.	=62.	=62.	=62.
4D\	2B\]	0D	0r	0r
4C/	.	.	.	.
4BB/	1A	.	.	.
4AA/	.	.	.	.
1BB	.	.	.	.
.	2G#i/	.	.	.
=63	=63	=63	=63	=63
1AA	1A	0E	0r	0r
2r	2r	.	.	.
2AA/	2A/	.	.	.
=64.	=64.	=64.	=64.	=64.
1D	1B	1r	0r	0r
1C	1c	1E	.	.
=65	=65	=65	=65	=65
0BB	1.d	1F	0r	0r
.	.	1G	.	.
.	4c\	.	.	.
.	4B\	.	.	.
=66.	=66.	=66.	=66.	=66.
2AA/	2c\	1A	0r	0r
1D	2A/	.	.	.
.	2B\	2r	.	.
[2C/	2c\	2E/	.	.
=67	=67	=67	=67	=67
4C/]	1d	2F/	0r	1r
4BB/	.	.	.	.
2BB/	.	2G/	.	.
2AA/	[1c	1A	.	2r
[2C/	.	.	.	2c/
=68.	=68.	=68.	=68.	=68.
4C/]	1c]	2G/	0r	2e/
4BB/	.	.	.	.
2AA/	.	1F	.	2f/
1GG	1B	.	.	1g
.	.	2E/	.	.
=69	=69	=69	=69	=69
0FF	[0A	0F	1c	1a
.	.	.	2c\	2a/
.	.	.	2c\	[2cc\
=70.	=70.	=70.	=70.	=70.
1FF	0A]	1F	2A/	4cc\]
.	.	.	.	4b\
.	.	.	1c	1a
1FF	.	1F	.	.
.	.	.	4B\	4g/
.	.	.	4A/	4f/
=71	=71	=71	=71	=71
1C	0r	2E/	2G/	2g/
.	.	2.A/	2.c\	2e/
1C	.	.	.	2a/
.	.	4G/	4d\	.
.	.	2E/	[2e\	[2g/
=72.	=72.	=72.	=72.	=72.
0C	0r	1A	2e\]	2g/]
.	.	.	2c\	1f
.	.	1G	1c	.
.	.	.	.	2e/
=73	=73	=73	=73	=73
0FF	0r	0F	0c	1f
.	.	.	.	2r
.	.	.	.	[2f/
=74.	=74.	=74.	=74.	=74.
0C	0r	0r	2r	2f/]
.	.	.	1c	4e/
.	.	.	.	4d/
.	.	.	.	2e/
.	.	.	4B\	2c/
.	.	.	4A/	.
=75	=75	=75	=75	=75
0r	0r	0r	2B\	2d/
.	.	.	2G/	2e/
.	.	.	2A/	2f/
.	.	.	2B\	2d/
=76.	=76.	=76.	=76.	=76.
0r	0r	0r	2c\	1e
.	.	.	2A/	.
.	.	.	1B	2r
.	.	.	.	[2g/
=77	=77	=77	=77	=77
0r	0r	0r	2r	2g/]
.	.	.	1d	2a/
.	.	.	.	2b\
.	.	.	2e\	2g/
=78.	=78.	=78.	=78.	=78.
0r	0r	0r	2f\	2a/
.	.	.	2d\	2b\
.	.	.	2e\	1cc
.	.	.	2f\	.
=79	=79	=79	=79	=79
0G	0r	0r	1g	1b
.	.	.	2d\	2g/
.	.	.	[2e\	[2g/
=80.	=80.	=80.	=80.	=80.
1G	1r	0r	2e\]	2g/]
.	.	.	4d\	4f/
.	.	.	4c\	4e/
1G	1B	.	1B	1d
=81	=81	=81	=81	=81
2.A\	1c	0r	0r	0r
4G\	.	.	.	.
2E\	1c	.	.	.
[2F\	.	.	.	.
=82.	=82.	=82.	=82.	=82.
2F\]	1.c	0r	1r	0r
4E\	.	.	.	.
4D\	.	.	.	.
1E	.	.	1e	.
.	4d\	.	.	.
.	4c\	.	.	.
=83	=83	=83	=83	=83
[0D	1d	0r	1f	0r
.	2A/	.	1f	.
.	[2B\	.	.	.
=84.	=84.	=84.	=84.	=84.
0D]	2B\]	0r	1.f	1r
.	4A/	.	.	.
.	4G/	.	.	.
.	1A	.	.	1a
.	.	.	4g\	.
.	.	.	4f\	.
=85	=85	=85	=85	=85
0r	[0G	0r	1g	1b
.	.	.	2d\	1b
.	.	.	[2e\	.
=86.	=86.	=86.	=86.	=86.
0r	0G]	0r	2e\]	1.b
.	.	.	4d\	.
.	.	.	4c\	.
.	.	.	1d	.
.	.	.	.	4cc\
.	.	.	.	4b\
=87	=87	=87	=87	=87
1F	0r	[0A	[0c	1cc
2F\	.	.	.	2a/
[2F\	.	.	.	[2a/
=88.	=88.	=88.	=88.	=88.
2F\]	0r	0A]	0c]	2a/]
4E\	.	.	.	4g/
4D\	.	.	.	4f/
2C/	.	.	.	2e/
2FF/	.	.	.	[2f/
=89	=89	=89	=89	=89
1C	1E	[0A	0r	4f/]
.	.	.	.	4e/
.	.	.	.	1e
1D	1F	.	.	.
.	.	.	.	2d/
=90.	=90.	=90.	=90.	=90.
0AA	1E	0A]	0r	0e
.	2.E/	.	.	.
.	4F/	.	.	.
=91	=91	=91	=91	=91
0E	2G/	[0B	1r	0r
.	2G/	.	.	.
.	2G/	.	2.B\	.
.	2G/	.	.	.
.	.	.	4c\	.
=92.	=92.	=92.	=92.	=92.
0r	1D	0B]	2d\	1r
.	.	.	2d\	.
.	2G/	.	2d\	2.b\
.	[2G/	.	2d\	.
.	.	.	.	4cc\
=93	=93	=93	=93	=93
0r	2G/]	0B	1G	2dd\
.	4F/	.	.	2dd\
.	4E/	.	.	.
.	1D	.	1d	2dd\
.	.	.	.	2dd\
=94.	=94.	=94.	=94.	=94.
1r	0C	[0c	1.e	1g
2.AA/	.	.	.	[1cc
.	.	.	2e\	.
4BB/	.	.	.	.
=95	=95	=95	=95	=95
2C/	0r	0c]	1.e	2cc\]
2C/	.	.	.	4b\
.	.	.	.	4a/
2C/	.	.	.	2g/
2C/	.	.	4d\	2a/
.	.	.	4c\	.
=96.	=96.	=96.	=96.	=96.
1GG	1G	0B	2d\	2b\
.	.	.	1g	2g/
1GG	1G	.	.	1dd
.	.	.	2g\	.
=97	=97	=97	=97	=97
2.AA/	2.C/	1.c	[0e	2.cc\
4BB/	4D/	.	.	4b\
2C/	2E/	.	.	2g/
2AA/	2C/	2c\	.	2a/
=98.	=98.	=98.	=98.	=98.
2.C/	2.E/	2c\	0e]	2e/
.	.	2c\	.	1a
4D\	4F/	.	.	.
1E	1G	1B	.	.
.	.	.	.	2g#i/
=99	=99	=99	=99	=99
[0AA	0E	[0A	1r	[0a
.	.	.	1e	.
=100.	=100.	=100.	=100.	=100.
0AA_	1r	0A_	1f	0a]
.	1E	.	2e\	.
.	.	.	[2c\	.
=101	=101	=101	=101	=101
0AA]	1F	0A]	2c\]	0r
.	.	.	2d\	.
.	2E/	.	[1e	.
.	2C/	.	.	.
=102.	=102.	=102.	=102.	=102.
1r	2.E/	0r	1e]	1r
.	4F/	.	.	.
1GG	1G	.	1d	1b
=103	=103	=103	=103	=103
1AA	1C	1r	2c\	1cc
.	.	.	1e	.
[1E	2r	1G	.	2b\
.	[2G/	.	4d\	[2g/
.	.	.	4c\	.
=104.	=104.	=104.	=104.	=104.
2E\]	2G/]	1G	1B	2g/]
4D\	4F/	.	.	2a/
4C/	4E/	.	.	.
2BB/	2D/	1G	1r	2b\
[2C/	2C/	.	.	[2e/
=105	=105	=105	=105	=105
2C/]	2.E/	0G	0r	2e/]
4BB/	.	.	.	4d/
4AA/	4F/	.	.	4c/
1BB	1D	.	.	1d
=106.	=106.	=106.	=106.	=106.
0AA	0E	1.A	0e	0c
.	.	2G/	.	.
=107	=107	=107	=107	=107
1r	1r	1F	1d	1r
1AA	1A	1E	[1e	1c
=108.	=108.	=108.	=108.	=108.
1AA	1A	2r	1e]	1c
.	.	2E/	.	.
1AA	1A	2F/	1c	1c
.	.	2E/	.	.
=109	=109	=109	=109	=109
0BB-	1F	2D/	0d	2.f/
.	.	1F	.	.
.	.	.	.	4d/
.	1D	.	.	2f/
.	.	4E/	.	2g/
.	.	4D/	.	.
=110.	=110.	=110.	=110.	=110.
0AA	0A	2.C/	1.e	2a/
.	.	.	.	2b\
.	.	4D/	.	.
.	.	1E	.	[1cc
.	.	.	[2c\	.
=111	=111	=111	=111	=111
1FF	0r	1r	2c\]	1cc]
.	.	.	4B\	.
.	.	.	4A/	.
1GG	.	2r	1G	1b
.	.	2E/	.	.
=112.	=112.	=112.	=112.	=112.
2.FF/	0r	2F/	1A	2a/
.	.	4E/	.	4g/
4GG/	.	4D/	.	4f/
2AA/	.	2C/	[1c	2e/
2FF/	.	[2F/	.	[2a/
=113	=113	=113	=113	=113
2AA/	0r	2F/]	2c\]	2a/]
2BB/	.	2D/	2B\	2.g/
2C/	.	2E/	1A	.
.	.	.	.	4f#i/
2D\	.	2F/	.	2f#i/
=114.	=114.	=114.	=114.	=114.
1GG	1B	1D	1G	1g
1G	2B\	1E	1r	2r
.	2B\	.	.	2e/
=115	=115	=115	=115	=115
1G	[0B	2r	1r	2e/
.	.	2E/	.	2e/
1G	.	2E/	2r	1g
.	.	2E/	2e\	.
=116.	=116.	=116.	=116.	=116.
0G	0B]	1G	2e\	2r
.	.	.	2e\	2e/
.	.	2r	1g	2e/
.	.	2E/	.	2e/
=117	=117	=117	=117	=117
2r	2r	2E/	2r	2.g/
2GG/	2B\	2E/	2g\	.
.	.	.	.	4f/
2GG/	2B\	2G/	2g\	2.d/
2GG/	2B\	4F/	2g\	.
.	.	4E/	.	4e/
=118.	=118.	=118.	=118.	=118.
1D	2d\	1D	2.f\	4f/
.	.	.	.	4g/
.	4c\	.	.	2.a/
.	4B\	.	4e\	.
2D\	1A	1F	2d\	.
.	.	.	.	4b\
[2AA/	.	.	2c\	[2cc\
=119	=119	=119	=119	=119
4AA/]	1c	0E	1e	2cc\]
4BB/	.	.	.	.
4C/	.	.	.	4b\
4D\	.	.	.	4a/
2.E\	[1B	.	1e	2g/
.	.	.	.	2e/
4F\	.	.	.	.
=120.	=120.	=120.	=120.	=120.
2G\	1B]	2r	2r	2e/
2G\	.	2E/	2e\	2e/
1G	2r	2E/	2e\	2.g/
.	2B\	2E/	2e\	.
.	.	.	.	4f/
=121	=121	=121	=121	=121
1GG	2B\	2G/	2B\	2.d/
.	2B\	4F/	2g\	.
.	.	4E/	.	4e/
1r	2d\	2D/	2.f\	4f/
.	.	.	.	4g/
.	4c\	2D/	.	[2a/
.	4B\	.	4e\	.
=122.	=122.	=122.	=122.	=122.
1r	2A/	1F	2d\	4a/]
.	.	.	.	4b\
.	2A/	.	2c\	1cc
1AA	1c	1E	1e	.
.	.	.	.	4b\
.	.	.	.	4a/
=123	=123	=123	=123	=123
2.E\	1B	2r	1e	1g
.	.	1E	.	.
4F\	.	.	.	.
2G\	2r	.	2r	2r
2G\	[2B\	2E/	2e\	[2g/
=124.	=124.	=124.	=124.	=124.
2GG/	2B\]	2G/	2d\	2g/]
2GG/	2B\	4F/	2e\	2g/
.	.	4E/	.	.
1D	1d	2D/	1f	1a
.	.	[2A/	.	.
=125	=125	=125	=125	=125
1AA	1c	2A/]	1.e	2.cc\
.	.	2E/	.	.
.	.	.	.	4b\
1r	2.B\	2.G/	.	2g/
.	.	.	2d\	[2dd\
.	4c\	4F/	.	.
=126.	=126.	=126.	=126.	=126.
1r	2d\	2D/	1f	4dd\]
.	.	.	.	4cc\
.	2c\	2.A/	.	2a/
[1AA	[1A	.	[1e	2.cc\
.	.	4G/	.	.
.	.	2E/	.	.
.	.	.	.	4b\
=127	=127	=127	=127	=127
1AA]	1A]	2.c\	1e]	2a/
.	.	.	.	2g/
.	.	4B\	.	.
1AA	1A	2A/	1r	2f/
.	.	2G/	.	[2e/
=128.	=128.	=128.	=128.	=128.
0AA	0A	2F/	1r	4e/]
.	.	.	.	4d/
.	.	4E/	.	1d
.	.	4D/	.	.
.	.	1E	1e	.
.	.	.	.	2c#i/
=129	=129	=129	=129	=129
0D	2.F/	1D	1.f	1d
.	4G/	.	.	.
.	1A	1F	.	2r
.	.	.	2d\	2a/
=130.	=130.	=130.	=130.	=130.
0GG	1G	1G	1d	2b\
.	.	.	.	2.dd\
.	[1D	1G	1d	.
.	.	.	.	4cc\
.	.	.	.	[2b\
=131	=131	=131	=131	=131
[0D	2D/]	0F	0d	2b\]
.	2E/	.	.	1a
.	2F/	.	.	.
.	2G/	.	.	2g/
=132.	=132.	=132.	=132.	=132.
0D]	0A	1F	0d	2f/
.	.	.	.	2e/
.	.	1F	.	1d
=133	=133	=133	=133	=133
[0AAl	[0Al	0E	[0el	[0cl
=134.	=134.	=134.	=134.	=134.
0AA]	0A]	0El	0e]	0c]
!!LO:LB:i:g=z
=135||	=135||	=135||	=135||	=135||
*>B	*>B	*>B	*>B	*>B
*clefF4	*clefGv2	*clefGv2	*clefGv2	*clefG2
*k[]	*k[]	*k[]	*k[]	*k[]
*M2/1	*M2/1	*M2/1	*M2/1	*M2/1
*met(C2)	*met(C2)	*met(C2)	*met(C2)	*met(C2)
!!section: Et resurrexit
!!!OMD: Et resurrexit
0r	0r	0E	1.e	0g
.	.	.	2d\	.
=136.	=136.	=136.	=136.	=136.
0r	0r	1E	2c\	1g
.	.	.	2B\	.
.	.	1E	2c\	1g
.	.	.	4B\	.
.	.	.	4A/	.
=137	=137	=137	=137	=137
0r	0r	0E	2G/	2.g/
.	.	.	2c\	.
.	.	.	.	4a/
.	.	.	2B\	2b\
.	.	.	[2e\	[2cc\
=138.	=138.	=138.	=138.	=138.
0r	0r	1F	2e\]	2cc\]
.	.	.	2d\	4b\
.	.	.	.	4a/
.	.	1E	1e	1g
=139	=139	=139	=139	=139
0r	0r	1A	2r	2r
.	.	.	2c\	2cc\
.	.	2G/	2d\	2b\
.	.	2E/	[2e\	[2cc\
=140.	=140.	=140.	=140.	=140.
1r	0r	1F	2e\]	2cc\]
.	.	.	2d\	4b\
.	.	.	.	4a/
2r	.	[1E	2e\	2g/
2AA/	.	.	[2c\	2a/
=141	=141	=141	=141	=141
2.C/	2r	0E]	2c\]	0e
.	2A/	.	4B\	.
4D\	.	.	4A/	.
4E\	2.c\	.	1G	.
4F\	.	.	.	.
2G\	.	.	.	.
.	4d\	.	.	.
=142.	=142.	=142.	=142.	=142.
2C/	2e\	0r	0r	0r
2G\	2.d\	.	.	.
2F\	.	.	.	.
.	4c\	.	.	.
[2G\	4B\	.	.	.
.	4A/	.	.	.
=143	=143	=143	=143	=143
4G\]	2G/	0r	2r	0r
4F\	.	.	.	.
2E\	1c	.	2c\	.
1D	.	.	2d\	.
.	2B\	.	2d\	.
=144.	=144.	=144.	=144.	=144.
1C	1c	0r	2e\	2r
.	.	.	2e\	2g/
1r	1r	.	1f	2a/
.	.	.	.	2a/
=145	=145	=145	=145	=145
0r	0r	2r	1e	2b\
.	.	2E/	.	2cc\
.	.	2F/	2r	2cc\
.	.	2F/	2d\	4b\
.	.	.	.	4a/
=146.	=146.	=146.	=146.	=146.
0r	0r	2E/	2e\	1g
.	.	2G/	2B\	.
.	.	1F	2c\	2r
.	.	.	4A/	2cc\
.	.	.	4B\	.
=147	=147	=147	=147	=147
0r	0r	1E	4c\	2cc\
.	.	.	4d\	.
.	.	.	1e	2b\
.	.	2r	.	2g/
.	.	2c\	[2e\	[2a/
=148.	=148.	=148.	=148.	=148.
0r	0r	2c\	2e\]	2a/]
.	.	2B\	2d\	4g/
.	.	.	.	4f/
.	.	2G/	2B\	4e/
.	.	.	.	4d/
.	.	[2A/	2c\	[2f/
=149	=149	=149	=149	=149
2r	0r	4A/]	2A/	2f/]
.	.	4G/	.	.
2AA/	.	4F/	1c	1e
.	.	4E/	.	.
2AA/	.	1F	.	.
2BB/	.	.	4B\	2d/
.	.	.	4A/	.
=150.	=150.	=150.	=150.	=150.
2.C/	2r	0E	1G	0e
.	2G/	.	.	.
4D\	.	.	.	.
2E\	2G/	.	1r	.
2C/	2A/	.	.	.
=151	=151	=151	=151	=151
2D\	2.B\	0r	0r	0r
2E\	.	.	.	.
.	4c\	.	.	.
2F\	2d\	.	.	.
4E\	2B\	.	.	.
4D\	.	.	.	.
=152.	=152.	=152.	=152.	=152.
0C	2c\	1r	0r	1g
.	2d\	.	.	.
.	2e\	1E	.	2g/
.	4d\	.	.	2g/
.	4c\	.	.	.
=153	=153	=153	=153	=153
0r	[0B	2E/	1e	1g
.	.	2E/	.	.
.	.	1E	2e\	2r
.	.	.	2e\	2g/
=154.	=154.	=154.	=154.	=154.
0r	0B]	2r	1e	2e/
.	.	2G/	.	1g
.	.	2E/	2r	.
.	.	[2G/	2d\	4f/
.	.	.	.	4e/
=155	=155	=155	=155	=155
0r	0r	2G/]	2B\	2d/
.	.	4F/	1d	2d/
.	.	4E/	.	.
.	.	2D/	.	2.f/
.	.	2D/	4c\	.
.	.	.	4B\	4g/
=156.	=156.	=156.	=156.	=156.
0r	0r	2.F/	2A/	4a/
.	.	.	.	4b\
.	.	.	2A/	1cc
.	.	4G/	.	.
.	.	4A/	2.c\	.
.	.	4B\	.	.
.	.	[2c\	.	4b\
.	.	.	4d\	4a/
=157	=157	=157	=157	=157
0r	0r	2c\]	4e\	2.g/
.	.	.	4f\	.
.	.	4B\	1g	.
.	.	4A/	.	4a/
.	.	2.G/	.	2b\
.	.	.	4f\	2cc\
.	.	4A/	4e\	.
=158.	=158.	=158.	=158.	=158.
0r	0r	2B\	2d\	2b\
.	.	2c\	1e	1a
.	.	1B	.	.
.	.	.	2d\	2g#i/
=159	=159	=159	=159	=159
0AA	1r	[0A	0e	0a
.	1E	.	.	.
=160.	=160.	=160.	=160.	=160.
1AA	1F	0A]	0r	0r
1AA	2E/	.	.	.
.	[2A/	.	.	.
=161	=161	=161	=161	=161
1BB	2A/]	0r	0r	0r
.	2G/	.	.	.
2AA/	2F/	.	.	.
[2D\	4E/	.	.	.
.	4D/	.	.	.
=162.	=162.	=162.	=162.	=162.
2D\]	2E/	0r	0r	0r
2C/	1e	.	.	.
2BB/	.	.	.	.
4AA/	2d\	.	.	.
4GG/	.	.	.	.
=163	=163	=163	=163	=163
2AA/	2c\	0r	0r	0r
1A	4B\	.	.	.
.	4A/	.	.	.
.	2c\	.	.	.
2G\	2B\	.	.	.
=164.	=164.	=164.	=164.	=164.
2F\	2A/	0r	0r	0r
4E\	1d	.	.	.
4D\	.	.	.	.
1E	.	.	.	.
.	2c#i\	.	.	.
=165	=165	=165	=165	=165
[0D	0d	1.A	0r	1r
.	.	.	.	[1a
.	.	2A/	.	.
=166.	=166.	=166.	=166.	=166.
0D]	0r	2.F/	1.d	2a/]
.	.	.	.	2a/
.	.	4E/	.	.
.	.	1D	.	2.f/
.	.	.	2d\	.
.	.	.	.	4e/
=167	=167	=167	=167	=167
0r	0r	1.G	2.B\	1d
.	.	.	4A/	.
.	.	.	1G	[1g
.	.	2G/	.	.
=168.	=168.	=168.	=168.	=168.
0r	0r	2.E/	1.c	2g/]
.	.	.	.	2g/
.	.	4D/	.	.
.	.	2C/	.	2.e/
.	.	2F/	2c\	.
.	.	.	.	4d/
=169	=169	=169	=169	=169
0r	0r	2F/	2.A/	2c/
.	.	2.F/	.	2f/
.	.	.	4G/	.
.	.	.	1F	2f/
.	.	4G/	.	.
.	.	4A/	.	[2f/
.	.	4B\	.	.
=170.	=170.	=170.	=170.	=170.
0r	0r	2.c\	2r	4f/]
.	.	.	.	4g/
.	.	.	2.A/	4a/
.	.	4B\	.	4b\
.	.	2A/	.	2cc\
.	.	.	4B\	.
.	.	4G/	4c\	4b\
.	.	4F/	4d\	4a/
=171	=171	=171	=171	=171
0r	0r	1E	2e\	2.g/
.	.	.	2e\	.
.	.	.	.	4a/
.	.	1D	2f\	2b\
.	.	.	[2d\	[2a/
=172.	=172.	=172.	=172.	=172.
0r	0r	0D	2d\]	2a/]
.	.	.	4c\	1g
.	.	.	4B\	.
.	.	.	1A	.
.	.	.	.	2f#i/
=173	=173	=173	=173	=173
2E\	1r	0r	0G	0g
2F\	.	.	.	.
2G\	2B\	.	.	.
2G\	2c\	.	.	.
=174.	=174.	=174.	=174.	=174.
2G\	2d\	0r	0r	0r
4F\	2d\	.	.	.
4E\	.	.	.	.
4D\	2d\	.	.	.
4E\	.	.	.	.
[2F\	4c\	.	.	.
.	4B\	.	.	.
=175	=175	=175	=175	=175
4F\]	4A/	0r	0r	0r
4G\	4B\	.	.	.
2.A\	2.c\	.	.	.
4G\	4B\	.	.	.
4F\	4A/	.	.	.
4E\	4G/	.	.	.
=176.	=176.	=176.	=176.	=176.
2F\	2A/	0r	0r	0r
1E	2E/	.	.	.
.	1F	.	.	.
2D\	.	.	.	.
=177	=177	=177	=177	=177
0E	0E	0r	0r	1g
.	.	.	.	2e/
.	.	.	.	2e/
=178.	=178.	=178.	=178.	=178.
0r	0r	1G	0r	1d
.	.	2E/	.	2.g/
.	.	2E/	.	.
.	.	.	.	4f/
=179	=179	=179	=179	=179
0r	0r	1D	1d	4f/
.	.	.	.	4e/
.	.	.	.	1a
.	.	2.G/	2B\	.
.	.	.	2B\	2g/
.	.	4E/	.	.
=180.	=180.	=180.	=180.	=180.
0r	0r	4F/	1A	2a/
.	.	4E/	.	.
.	.	1A	.	2e/
.	.	.	2.d\	2f/
.	.	2G/	.	2g/
.	.	.	4B\	.
=181	=181	=181	=181	=181
0r	0r	2A/	4c\	1e
.	.	.	4B\	.
.	.	2E/	1e	.
.	.	1F	.	1a
.	.	.	2d\	.
=182.	=182.	=182.	=182.	=182.
0r	0r	2E/	2e\	2g/
.	.	2E/	2B\	1e
.	.	1A	1c	.
.	.	.	.	2f/
=183	=183	=183	=183	=183
0r	0r	2G/	2B\	1g
.	.	1E	2B\	.
.	.	.	1e	[1g
.	.	2F/	.	.
=184.	=184.	=184.	=184.	=184.
0r	0r	1.G	2d\	2g/]
.	.	.	1B	4f/
.	.	.	.	4e/
.	.	.	.	2d/
.	.	4F/	2c\	2e/
.	.	4E/	.	.
=185	=185	=185	=185	=185
1r	0r	2D/	2d\	2f/
.	.	2E/	2.B\	1e
1F	.	1F	.	.
.	.	.	4A/	.
.	.	.	2A/	2d/
=186.	=186.	=186.	=186.	=186.
1.G	0r	[0E	0B	[0e
2F\	.	.	.	.
=187	=187	=187	=187	=187
2E\	1r	0E]	0r	0e]
2D\	.	.	.	.
2C/	1B	.	.	.
2BB/	.	.	.	.
=188.	=188.	=188.	=188.	=188.
2.AA/	1.c	0r	0r	0r
4BB/	.	.	.	.
2C/	.	.	.	.
[2D\	2B\	.	.	.
=189	=189	=189	=189	=189
4D\]	2A/	0r	0r	0r
4C/	.	.	.	.
4BB/	2G/	.	.	.
4AA/	.	.	.	.
4BB/	2F/	.	.	.
4AA/	.	.	.	.
2C/	2E/	.	.	.
=190.	=190.	=190.	=190.	=190.
2D\	2.D/	0r	0r	0r
2F\	.	.	.	.
.	4E/	.	.	.
2D\	2F/	.	.	.
[2E\	[2G/	.	.	.
=191	=191	=191	=191	=191
4E\]	4G/]	0r	1r	0r
4D\	4F/	.	.	.
1D	4E/	.	.	.
.	4D/	.	.	.
.	1E	.	1e	.
2C#i/	.	.	.	.
=192.	=192.	=192.	=192.	=192.
0D	0D	1r	1.f	0r
.	.	1F	.	.
.	.	.	2e\	.
=193	=193	=193	=193	=193
0r	0r	1.G	2d\	0r
.	.	.	2c\	.
.	.	.	2B\	.
.	.	2F/	2A/	.
=194.	=194.	=194.	=194.	=194.
0r	0r	2E/	0G	1r
.	.	2D/	.	.
.	.	2C/	.	1b
.	.	2BB/	.	.
=195	=195	=195	=195	=195
0r	0r	[0AA	2A/	1.cc
.	.	.	1e	.
.	.	.	2d\	2b\
=196.	=196.	=196.	=196.	=196.
0r	0r	0AA]	2c\	2a/
.	.	.	2B\	2g/
.	.	.	4A/	2f/
.	.	.	4B\	.
.	.	.	4c\	2e/
.	.	.	8B\L	.
.	.	.	8c\J	.
=197	=197	=197	=197	=197
0r	0r	2r	2d\	2d/
.	.	1D	1f	2a/
.	.	.	.	2f/
.	.	2C/	[2e\	[2g/
=198.	=198.	=198.	=198.	=198.
0r	0r	1D	4e\]	4g/]
.	.	.	4d\	4f/
.	.	.	1d	4e/
.	.	.	.	4d/
.	.	1A	.	1e
.	.	.	2c#i\	.
=199	=199	=199	=199	=199
1D	0r	0D	0d	0d
2D\	.	.	.	.
[2BB/	.	.	.	.
=200.	=200.	=200.	=200.	=200.
4BB/]	1D	0r	0r	0r
4C/	.	.	.	.
1D	.	.	.	.
.	2F/	.	.	.
4C/	2G/	.	.	.
4BB/	.	.	.	.
=201	=201	=201	=201	=201
1AA	1A	0r	0r	0r
1AA	2A/	.	.	.
.	[2F/	.	.	.
=202.	=202.	=202.	=202.	=202.
1AA	4F/]	0r	0r	0r
.	4G/	.	.	.
.	1A	.	.	.
2r	.	.	.	.
2AA/	4G/	.	.	.
.	4F/	.	.	.
=203	=203	=203	=203	=203
2C/	1E	0r	0r	0r
2D\	.	.	.	.
2E\	2r	.	.	.
2C/	2E/	.	.	.
=204.	=204.	=204.	=204.	=204.
2E\	2G/	0r	0r	0r
2F\	2A/	.	.	.
[1G	2B\	.	.	.
.	2G/	.	.	.
=205	=205	=205	=205	=205
2G\]	2B\	0r	0r	0r
4F\	2c\	.	.	.
4E\	.	.	.	.
2F\	[1d	.	.	.
2G\	.	.	.	.
=206.	=206.	=206.	=206.	=206.
1D	2d\]	1r	0r	1a
.	4c\	.	.	.
.	4B\	.	.	.
1F	2c\	1A	.	2a/
.	2d\	.	.	[2f/
=207	=207	=207	=207	=207
4F\	2A/	2A/	0r	4f/]
4E\	.	.	.	4g/
4D\	2A/	2.F/	.	1a
4C/	.	.	.	.
1D	2.A/	.	.	.
.	.	4G/	.	.
.	.	[2A/	.	4g/
.	4B\	.	.	4f/
=208.	=208.	=208.	=208.	=208.
[0C	0c	2A/]	1e	1e
.	.	4G/	.	.
.	.	4F/	.	.
.	.	[1E	2e\	1r
.	.	.	[2c\	.
=209	=209	=209	=209	=209
0C]	0r	0E]	4c\]	2r
.	.	.	4d\	.
.	.	.	1e	2e/
.	.	.	.	2g/
.	.	.	4d\	2a/
.	.	.	4c\	.
=210.	=210.	=210.	=210.	=210.
0r	0r	2r	1B	2b\
.	.	2E/	.	2g/
.	.	2G/	1r	2b\
.	.	2A/	.	2cc\
=211	=211	=211	=211	=211
0r	0r	2B\	2r	1.dd
.	.	2G/	2B\	.
.	.	2B\	2d\	.
.	.	2c\	[2e\	4cc\
.	.	.	.	4b\
=212.	=212.	=212.	=212.	=212.
0r	0r	2d\	4e\]	1a
.	.	.	4f\	.
.	.	4c\	2d\	.
.	.	4B\	.	.
.	.	1A	2e\	1cc
.	.	.	2f\	.
=213	=213	=213	=213	=213
0r	0r	[0G	2.g\	2b\
.	.	.	.	1g
.	.	.	4f\	.
.	.	.	1d	.
.	.	.	.	2f/
=214.	=214.	=214.	=214.	=214.
0r	0r	0G_	2r	2e/
.	.	.	1g	4d/
.	.	.	.	4c/
.	.	.	.	2d/
.	.	.	2f\	[2dd\
=215	=215	=215	=215	=215
0r	0r	0G]	2e\	2dd\]
.	.	.	4d\	2.cc\
.	.	.	4c\	.
.	.	.	1d	.
.	.	.	.	4b\
.	.	.	.	2b\
=216.	=216.	=216.	=216.	=216.
2.C/	1r	0r	0c	0cc
4D\	.	.	.	.
2E\	1G	.	.	.
2C/	.	.	.	.
=217	=217	=217	=217	=217
2E\	2.G/	0r	0r	0r
2F\	.	.	.	.
.	4A/	.	.	.
1G	2B\	.	.	.
.	2G/	.	.	.
=218.	=218.	=218.	=218.	=218.
2G\	2B\	0r	0r	0r
1F	2c\	.	.	.
.	1d	.	.	.
4E\	.	.	.	.
4D\	.	.	.	.
=219	=219	=219	=219	=219
2F\	2d\	0r	0r	0r
2E\	1c	.	.	.
2.C/	.	.	.	.
.	4B\	.	.	.
4D\	4A/	.	.	.
=220.	=220.	=220.	=220.	=220.
4E\	2c\	0r	0r	0r
4F\	.	.	.	.
2.G\	2B\	.	.	.
.	2.G/	.	.	.
4F\	.	.	.	.
[2E\	.	.	.	.
.	4A/	.	.	.
=221	=221	=221	=221	=221
2E\]	4B\	0r	0r	2.g/
.	4c\	.	.	.
4D\	2.d\	.	.	.
4C/	.	.	.	4a/
2BB/	.	.	.	2b\
.	4c\	.	.	.
2E\	4B\	.	.	2g/
.	4A/	.	.	.
=222.	=222.	=222.	=222.	=222.
2D\	2B\	0r	0r	2b\
2C/	1A	.	.	2cc\
1BB	.	.	.	1dd
.	2G#i/	.	.	.
=223	=223	=223	=223	=223
0AA	0A	0r	2.c\	1.cc
.	.	.	4d\	.
.	.	.	2e\	.
.	.	.	2c\	2cc\
=224.	=224.	=224.	=224.	=224.
0r	0r	1r	2e\	1cc
.	.	.	2f\	.
.	.	2.G/	[1g	[1b
.	.	4A/	.	.
=225	=225	=225	=225	=225
0r	0r	2B\	2g\]	1b]
.	.	2G/	2g\	.
.	.	2B\	1g	1b
.	.	2c\	.	.
=226.	=226.	=226.	=226.	=226.
0r	0r	1d	0f	1a
.	.	2.D/	.	2a/
.	.	.	.	2a/
.	.	4E/	.	.
=227	=227	=227	=227	=227
0r	0r	2F/	1f	2a/
.	.	2D/	.	1f
.	.	2.F/	1f	.
.	.	.	.	4e/
.	.	4G/	.	4d/
=228.	=228.	=228.	=228.	=228.
0r	0r	0A	1e	1c
.	.	.	2.A/	2.c/
.	.	.	4B\	4d/
=229	=229	=229	=229	=229
0r	0r	1A	2c\	2e/
.	.	.	2A/	2c/
.	.	1A	2c\	2.e/
.	.	.	2d\	.
.	.	.	.	4f/
=230.	=230.	=230.	=230.	=230.
*M3/2%3	*	*	*	*
*met(3)	*	*	*	*
3%2r	0r	0E	2e\	2g/
.	.	.	4d\	1a
3%2r	.	.	.	.
.	.	.	4c\	.
.	.	.	1B	.
3%2E	.	.	.	.
.	.	.	.	2g#i/
=231	=231	=231	=231	=231
*	*rscale:2/3	*rscale:2/3	*rscale:2/3	*
*M3/1	*M3/1	*M3/1	*M3/1	*M3/1
*met()	*met()	*met()	*met()	*met(3)
!!primary-mensuration: met(3)
1.F	0.r	0.r	0.A	0a
2G\	.	.	.	.
1A	.	.	.	1e
*	*rscale:1	*	*	*
=232	=232.	=232.	=232.	=232
*	*M3/1	*	*	*
*	*met(3)	*	*	*
0.D	1r	0.r	0.r	1.f
.	1r	.	.	.
.	.	.	.	2g/
.	1A	.	.	1a
*	*	*rscale:1	*	*
=233	=233	=233	=233	=233
*	*	*M3/1	*	*
*	*	*met(3)	*	*
0.r	1.B	1r	0.r	0.d
.	.	1r	.	.
.	2c\	.	.	.
.	1d	1D	.	.
*	*	*	*rscale:1	*
=234	=234.	=234	=234.	=234
*	*	*	*M3/1	*
*	*	*	*met(3)	*
0.r	0.G	1.E	1r	0.r
.	.	.	1r	.
.	.	2F/	.	.
.	.	1G	1B	.
=235	=235	=235	=235	=235
1r	0.r	0.C	1.c	0.r
1r	.	.	.	.
.	.	.	2d\	.
1E	.	.	1e	.
=236	=236	=236	=236	=236
1.F	0.r	0.r	0.A	1r
.	.	.	.	1r
2G\	.	.	.	.
1A	.	.	.	1e
=237	=237	=237	=237	=237
1.D	1r	0.r	0.r	1.f
.	1r	.	.	.
2E\	.	.	.	2g/
1F	1A	.	.	1a
=238	=238	=238	=238	=238
1.G	1.B	1r	0.r	1.d
.	.	1r	.	.
2F\	2c\	.	.	2e/
1D	1d	1D	.	1f
=239	=239	=239	=239	=239
0C	1.G	1.E	1r	1.g
.	.	.	1r	.
.	2A/	2F/	.	2f/
1r	1B	1G	1B	1d
=240	=240	=240	=240	=240
0.r	1.E	0C	1.c	0.c
.	2F/	.	2d\	.
.	1G	1C	1e	.
=241	=241	=241	=241	=241
0.r	[0.A	1.F	1.A	1r
.	.	.	.	1r
.	.	2G/	2B\	.
.	.	1A	1c	1e
=242	=242	=242	=242	=242
1r	0A]	0D	1.d	1.f
1r	.	.	.	.
.	.	.	2c\	2g/
1AA	1r	1r	1A	1a
=243	=243	=243	=243	=243
1.BB	1.D	0.r	1G	0d
.	.	.	0d	.
2C/	2E/	.	.	.
1D	1F	.	.	1a
=244	=244	=244	=244	=244
0GG	1.G	0D	1B	1.b
.	.	.	0d	.
.	2A/	.	.	2cc\
1GG	1B	1D	.	1dd
=245	=245	=245	=245	=245
1.C	1c	1.E	1.c	1g
.	0A	.	.	1.cc
2BB/	.	2D/	2d\	.
1AA	.	1C	2e\	.
.	.	.	2f\	2b\
=246	=246	=246	=246	=246
1GG	1.d	[0.D	1g	1b
1.D	.	.	1.f	1.a
.	2c\	.	.	.
.	1A	.	.	.
2C/	.	.	2e\	2g/
=247	=247	=247	=247	=247
1BB	1B	1D]	1.d	1g
0AA	2c\	0E	.	0a
.	2B\	.	2c\	.
.	2A/	.	1c	.
.	2G/	.	.	.
=248	=248	=248	=248	=248
*M2/1	*M2/1	*M2/1	*M2/1	*M2/1
*met(C|)	*met(C|)	*met(C|)	*met(C|)	*met(C|)
1r	0F	0D	0d	1r
1D	.	.	.	1f
=249	=249	=249	=249	=249
0D	1r	0r	0r	0f
.	1A	.	.	.
=250	=250	=250	=250	=250
0E	0G	0r	1B	0g
.	.	.	1c	.
=251	=251	=251	=251	=251
[0D	0A	1r	0d	0f
.	.	1F	.	.
=252	=252	=252	=252	=252
0D]	0A	1.F	0d	0f
.	.	2G/	.	.
=253	=253	=253	=253	=253
1AA	1A	1A	0c	0e
1C	[1G	1E	.	.
=254	=254	=254	=254	=254
1GG	2G/]	1G	[0B	0d
.	2A/	.	.	.
[1GG	2B\	1D	.	.
.	2c\	.	.	.
=255	=255	=255	=255	=255
2GG/]	0d	1.D	0B]	1d
2AA/	.	.	.	.
2BB/	.	.	.	[1d
2C/	.	2E/	.	.
=256	=256	=256	=256	=256
0D	1.D	2F/	1A	2d/]
.	.	2G/	.	2e/
.	.	[1A	[1A	2f/
.	2E/	.	.	2g/
=257	=257	=257	=257	=257
0D	2F/	2A/]	2A/]	0a
.	2G/	2G/	2B\	.
.	2A/	1F	2c\	.
.	2B\	.	2d\	.
=258	=258	=258	=258	=258.
0AA	2c\	1E	0e	0a
.	2.d\	.	.	.
.	.	1A	.	.
.	4c#i\	.	.	.
.	2c#i\	.	.	.
=259	=259	=259	=259	=259
0D	0d	1F	0f	1r
.	.	[1A	.	[1a
=260	=260	=260	=260	=260
0r	2r	2A/]	1e	1a]
.	2A/	4G/	.	.
.	.	4F/	.	.
.	2B\	1E	1e	1g
.	2c\	.	.	.
=261	=261	=261	=261	=261
1r	1.d	0D	1r	1f
[1D	.	.	[1f	[1a
.	4c\	.	.	.
.	4B\	.	.	.
=262	=262	=262	=262	=262
1D]	1A	0r	2f\]	2a/]
.	.	.	4e\	2f/
.	.	.	4d\	.
1C	1E	.	2e\	2g/
.	.	.	2c\	2e/
=263	=263	=263	=263	=263
1AA	0A	2.C/	0c	1e
.	.	4D/	.	.
2AA/	.	2E/	.	[1cc
[2FF/	.	[2F/	.	.
=264	=264	=264	=264	=264
2FF/]	1A	2F/]	0r	1cc]
2AA/	.	4E/	.	.
.	.	4D/	.	.
1GG	2.B\	1E	.	1b
.	4c\	.	.	.
=265	=265	=265	=265	=265
0FF	2d\	1F	1r	1a
.	1c	.	.	.
.	.	1C	[1f	1cc
.	4B\	.	.	.
.	4A/	.	.	.
=266	=266	=266	=266	=266
0C	1G	1.E	1f]	2cc\
.	.	.	.	4b\
.	.	.	.	4a/
.	1G	.	1e	1g
.	.	2C/	.	.
=267	=267	=267	=267	=267
1FF	0F	1C	2.f\	0a
.	.	.	4e\	.
2r	.	1F	4d\	.
.	.	.	4c\	.
2F\	.	.	[2d\	.
=268	=268	=268	=268	=268
2E\	0r	2G/	2d\]	2g/
2C/	.	1G	1c	2e/
1D	.	.	.	1f
.	.	2F/	2B\	.
=269	=269	=269	=269	=269
*M3/1	*M3/1	*M3/1	*M3/1	*M3/1
*met(3)	*met(3)	*met(3)	*met(3)	*met(3)
1C	1r	1G	1.c	1e
1FF	1r	1F	.	1a
.	.	.	2d\	.
1C	1c	1E	1e	1g
=270	=270	=270	=270	=270
1D	1.A	1F	1d	1f
1AA	.	1A	0e	1cc
.	2G/	.	.	.
1E	1E	1G	.	1b
=271	=271	=271	=271	=271
1F	1A	0F	1c	1.a
1.D	1.F	.	1.f	.
.	.	.	.	2g/
.	.	1D	.	1f
2C/	2G/	.	2e\	.
=272	=272	=272	=272	=272
1AA	0A	1E	1c	1e
0D	.	0F	1d	1.d
.	1d	.	[1A	.
.	.	.	.	2e/
=273	=273	=273	=273	=273
1.AA	1.c	[0.El	1A]	0.e
.	.	.	0c	.
2BB/	2B\	.	.	.
2C/	1A	.	.	.
2D\	.	.	.	.
=274	=274	=274	=274	=274
1E	0G	0.E_	[0.Bl	[0.el
0EE	.	.	.	.
.	[1E	.	.	.
=275	=275	=275	=275	=275
[0.EEl	2E/]	0.E_	0.B_	0.e_
.	2F/	.	.	.
.	0G	.	.	.
=276	=276	=276	=276	=276
0.EE]	0.Gl	0.E]	0.B]	0.e]
==	==	==	==	==
*-	*-	*-	*-	*-
!!!RDF**kern: l=long note in original notation
!!!RDF**kern: i=editorial accidental
!!!ENC:	Chris Gage 04-18-2013
!!!END:	2013/08/01/
!!!EED:	Jesse Rodin
!!!EEV:	2013/08/02/
!!!ONB:	Translated from MusicXML and edited on 2013/08/02/ by Craig Sapp
!!muse2ps: T^@{OPR}^u^@{ONM}{. }@{OTL}^C^@{COM}^i2I150v85,85,85,85,130Q16
